images/about4.svg

<svg width="40" height="40" viewBox="0 0 40 40" fill="none" xmlns="http://www.w3.org/2000/svg">
<circle cx="20" cy="20" r="20" fill="#F0F5FF"/>
<path d="M29 24.5C29 24.88 28.79 25.21 28.47 25.38L20.57 29.82C20.41 29.94 20.21 30 20 30C19.79 30 19.59 29.94 19.43 29.82L11.53 25.38C11.3696 25.2958 11.2354 25.1693 11.1419 25.0141C11.0485 24.859 10.9994 24.6811 11 24.5V15.5C11 15.12 11.21 14.79 11.53 14.62L19.43 10.18C19.59 10.06 19.79 10 20 10C20.21 10 20.41 10.06 20.57 10.18L28.47 14.62C28.79 14.79 29 15.12 29 15.5V24.5ZM13 17V23H14.25V21H15C15.5304 21 16.0391 20.7893 16.4142 20.4142C16.7893 20.0391 17 19.5304 17 19C17 18.4696 16.7893 17.9609 16.4142 17.5858C16.0391 17.2107 15.5304 17 15 17H13ZM14.25 20V18H14.75C15.0152 18 15.2696 18.1054 15.4571 18.2929C15.6446 18.4804 15.75 18.7348 15.75 19C15.75 19.2652 15.6446 19.5196 15.4571 19.7071C15.2696 19.8946 15.0152 20 14.75 20H14.25ZM17.75 17V23H19V21H19.75L20.41 23H21.73L20.94 20.61C21.43 20.25 21.75 19.66 21.75 19C21.75 18.4696 21.5393 17.9609 21.1642 17.5858C20.7891 17.2107 20.2804 17 19.75 17H17.75ZM19 20V18H19.5C19.7652 18 20.0196 18.1054 20.2071 18.2929C20.3946 18.4804 20.5 18.7348 20.5 19C20.5 19.2652 20.3946 19.5196 20.2071 19.7071C20.0196 19.8946 19.7652 20 19.5 20H19ZM25 17C23.62 17 22.5 18.34 22.5 20C22.5 21.66 23.62 23 25 23C26.38 23 27.5 21.66 27.5 20C27.5 18.34 26.38 17 25 17ZM25 18.25C25.76 18.25 26.38 19.03 26.38 20C26.38 20.97 25.76 21.75 25 21.75C24.24 21.75 23.63 20.97 23.63 20C23.63 19.03 24.24 18.25 25 18.25Z" fill="#BDD0EA"/>
</svg>

<svg width="40" height="40" fill="none" xmlns="http://www.w3.org/2000/svg"><circle cx="20" cy="20" r="20" fill="#F0F5FF"/><path d="M29 24.5c0 .38-.21.71-.53.88l-7.9 4.44c-.16.12-.36.18-.57.18-.21 0-.41-.06-.57-.18l-7.9-4.44a.99.99 0 01-.53-.88v-9c0-.38.21-.71.53-.88l7.9-4.44c.16-.12.36-.18.57-.18.21 0 .41.06.57.18l7.9 4.44c.32.17.53.5.53.88v9zM13 17v6h1.25v-2H15a2 2 0 000-4h-2zm1.25 3v-2h.5a1 1 0 010 2h-.5zm3.5-3v6H19v-2h.75l.66 2h1.32l-.79-2.39A2 2 0 0019.75 17h-2zM19 20v-2h.5a1 1 0 010 2H19zm6-3c-1.38 0-2.5 1.34-2.5 3s1.12 3 2.5 3 2.5-1.34 2.5-3-1.12-3-2.5-3zm0 1.25c.76 0 1.38.78 1.38 1.75s-.62 1.75-1.38 1.75c-.76 0-1.37-.78-1.37-1.75s.61-1.75 1.37-1.75z" fill="#BDD0EA"/></svg>
